COLOR/action 16/16/selection-top.svg

<svg height="16" width="16" xmlns="http://www.w3.org/2000/svg"><g transform="matrix(1 0 0 -1 0 14.326579)"><g fill="#666"><path d="m0-.673421h8v2h-8z"/><path d="m0 3.32658h8v2h-8z"/><path d="m0 7.326579h8v2h-8z"/></g><path d="m0 11.266982h16v2.059595h-16z" fill="#e95420"/><path d="m0 2.5605469v.5h16v-.5zm0 3.9394531v.5h8v-.5zm0 4v.5h8v-.5zm0 4v.5h8v-.5z" opacity=".2" transform="matrix(1 0 0 -1 0 14.326579)"/><path d="m0 1v.4980469h16v-.4980469zm0 4v.4980469h8v-.4980469zm0 4v.4980469h8v-.4980469zm0 4v.498047h8v-.498047z" fill="#fff" opacity=".3" transform="matrix(1 0 0 -1 0 14.326579)"/><path d="m9 8.326579 3.497082 4.000015 3.502918-4.000015h-2v-5h-3v5z" display="block" fill="#1a7fd4"/><g transform="matrix(1 0 0 -1 0 14.326579)"><path d="m12.498047 2-3.498047 4h.4375l3.060547-3.5 3.064453 3.5h.4375z" fill="#fff" opacity=".3"/><path d="m9.4375 5.5-.4375.5h2v-.5zm4.5625 0v.5h2l-.4375-.5zm-3 5v.5h3v-.5z" opacity=".2"/></g></g></svg>

<?xml version="1.0" encoding="UTF-8" standalone="no"?>
<svg
   xmlns:dc="http://purl.org/dc/elements/1.1/"
   xmlns:cc="http://creativecommons.org/ns#"
   xmlns:rdf="http://www.w3.org/1999/02/22-rdf-syntax-ns#"
   xmlns:svg="http://www.w3.org/2000/svg"
   xmlns="http://www.w3.org/2000/svg"
   xmlns:sodipodi="http://sodipodi.sourceforge.net/DTD/sodipodi-0.dtd"
   xmlns:inkscape="http://www.inkscape.org/namespaces/inkscape"
   height="16"
   width="16"
   version="1.1"
   id="svg16"
   sodipodi:docname="selection-top.svg"
   inkscape:version="0.92.4 (5da689c313, 2019-01-14)">
  <metadata
     id="metadata22">
    <rdf:RDF>
      <cc:Work
         rdf:about="">
        <dc:format>image/svg+xml</dc:format>
        <dc:type
           rdf:resource="http://purl.org/dc/dcmitype/StillImage" />
      </cc:Work>
    </rdf:RDF>
  </metadata>
  <defs
     id="defs20" />
  <sodipodi:namedview
     pagecolor="#ffffff"
     bordercolor="#666666"
     borderopacity="1"
     objecttolerance="10"
     gridtolerance="10"
     guidetolerance="10"
     inkscape:pageopacity="0"
     inkscape:pageshadow="2"
     inkscape:window-width="1920"
     inkscape:window-height="1016"
     id="namedview18"
     showgrid="false"
     inkscape:zoom="14.75"
     inkscape:cx="8"
     inkscape:cy="8"
     inkscape:window-x="0"
     inkscape:window-y="27"
     inkscape:window-maximized="1"
     inkscape:current-layer="svg16" />
  <g
     transform="matrix(1 0 0 -1 0 14.326579)"
     id="g14">
    <g
       id="g8"
       fill="#666">
      <path
         d="m0-.673421h8v2h-8z"
         id="path2" />
      <path
         d="m0 3.32658h8v2h-8z"
         id="path4" />
      <path
         d="m0 7.326579h8v2h-8z"
         id="path6" />
    </g>
    <path
       d="m0 11.266982h16v2.059595h-16z"
       id="path10"
       fill="#e95420" />
    <path
       d="M 0 2.5605469 L 0 3.0605469 L 16 3.0605469 L 16 2.5605469 L 0 2.5605469 z M 0 6.5 L 0 7 L 8 7 L 8 6.5 L 0 6.5 z M 0 10.5 L 0 11 L 8 11 L 8 10.5 L 0 10.5 z M 0 14.5 L 0 15 L 8 15 L 8 14.5 L 0 14.5 z "
       transform="matrix(1,0,0,-1,0,14.326579)"
       id="path873"
       style="fill:#000000;fill-opacity:1;opacity:0.2" />
    <path
       d="M 0 1 L 0 1.4980469 L 16 1.4980469 L 16 1 L 0 1 z M 0 5 L 0 5.4980469 L 8 5.4980469 L 8 5 L 0 5 z M 0 9 L 0 9.4980469 L 8 9.4980469 L 8 9 L 0 9 z M 0 13 L 0 13.498047 L 8 13.498047 L 8 13 L 0 13 z "
       id="path899"
       style="fill:#ffffff;fill-opacity:1;opacity:0.3"
       transform="matrix(1,0,0,-1,0,14.326579)" />
    <path
       d="m9 8.326579 3.497082 4.000015 3.502918-4.000015h-2v-5h-3v5z"
       display="block"
       id="path12"
       fill="#1a7fd4" />
    <path
       d="M 12.498047 2 L 9 6 L 9.4375 6 L 12.498047 2.5 L 15.5625 6 L 16 6 L 12.498047 2 z "
       transform="matrix(1,0,0,-1,0,14.326579)"
       id="path909"
       style="fill:#ffffff;fill-opacity:1;opacity:0.3" />
    <path
       d="M 9.4375 5.5 L 9 6 L 11 6 L 11 5.5 L 9.4375 5.5 z M 14 5.5 L 14 6 L 16 6 L 15.5625 5.5 L 14 5.5 z M 11 10.5 L 11 11 L 14 11 L 14 10.5 L 11 10.5 z "
       transform="matrix(1,0,0,-1,0,14.326579)"
       id="path914"
       style="fill:#000000;fill-opacity:1;opacity:0.2" />
  </g>
</svg>
